X:1
T:Title
%%score { ( 1 4 ) | ( 2 3 ) }
L:1/8
M:4/4
K:C
V:1 treble nm="Grand Piano"
V:4 treble 
V:2 bass 
V:3 bass 
V:1
 z4 z2[Q:1/4=100] G2 | c3 G E2 A2 | G6 [CEG]2 | [FA]B .[CAc]2 [EGc]2 [DFB]2 |[M:3/4] [CEc]6 | %5
[M:1/4] G2 |[M:4/4] c3 G E2 A2 | G6 [Ge]2 | z2 .A2 B2 z2 |[M:3/4] [B,DG]6 |[M:1/4] G2 | %11
[M:4/4] f3 d B2 z D | [CGc]2 [Gd]2 [Ge]3 [Ge] | [Gd]2 [^FA]2 B2 c2 |[M:3/4] d4 z2 |[M:1/4] G2 | %16
[M:4/4] [Ge]3 [Fd] [Ec]2 [EG]2 |[M:9/8] A2 f- f e2- e G2 | ABc d e2 [Bg]3 |[M:3/4] c6 |] %20
V:2
 z4 z2 G,2 | C3 G, E,2 A,2 | G,6 C,2 | z[K:treble] G z d[K:bass] G,2 G,,2 |[M:3/4] C,6 | %5
[M:1/4] G,2 |[M:4/4] C3 G, E,2 A,2 | G,6 [C,C]2 | B,-[E,B,]^F,A, .[G,DG]2 [D,CD]2 | %9
[M:3/4] [G,,G,]6 |[M:1/4][K:treble] [G,B,D]2 |[M:4/4] [G,B,G]3 [G,FG] [G,DG]2 [G,B,][K:bass]F, | %12
 E,2 [D,B,]2 [C,C]3 [C,C] | [D,B,]2 [D,D]2[K:treble] [G,DG]2 [A,DG]2 |[M:3/4] [B,DG]4 z2 | %15
[M:1/4][K:bass] [G,B,]2 |[M:4/4] [C,C]3 [C,C] [C,G,]2 [C,C]2 | %17
[M:9/8][K:treble] [F,CF]2 [A,CF]- [A,CF] [CG]2- [CG] G,2 | A,B,C D [Cc]2 [G,F]3 |[M:3/4] [CE]6 |] %20
V:3
 x8 | x8 | x8 | [F,C]2[K:treble] F,2[K:bass] z4 |[M:3/4] x6 |[M:1/4] x2 |[M:4/4] x8 | x8 | %8
 .D,2 z2 z4 |[M:3/4] x6 |[M:1/4][K:treble] x2 |[M:4/4] x7[K:bass] x | x8 | x4[K:treble] x4 | %14
[M:3/4] x6 |[M:1/4][K:bass] x2 |[M:4/4] x8 |[M:9/8][K:treble] x9 | x9 |[M:3/4] x6 |] %20
V:4
 x8 | x8 | x8 | x8 |[M:3/4] x6 |[M:1/4] x2 |[M:4/4] x8 | x8 | [Gd]2 [Dc]-[D^Fc] z D A2 | %9
[M:3/4] x6 |[M:1/4] x2 |[M:4/4] z4 z2 G2 | x8 | x8 |[M:3/4] x6 |[M:1/4] x2 |[M:4/4] x8 | %17
[M:9/8] x9 | x9 |[M:3/4] x6 |] %20

